X:1
T:O Unüberwindlicher Heldt
T:André Vierendeels
T:Melody by Georg Vogler (1625) (Tenor 1 voice)
T:Source : Catechismus---Würzburg---J.Volmari---1652. Editor : André Vierendeels (26/09/17).
T:Notes : Original clef : C4 , other voices supplied editorially Original note values have been quartered Text Middle German
T:O unüberwindlicher Heldt
T:©
T:©
C:André Vierendeels
Z:©
%%score [ 1 2 3 ]
L:1/8
Q:1/4=120
M:3/4
K:F
V:1 treble-8 nm="Tenor 1" snm="T 1"
V:2 treble-8 nm="Tenor 2" snm="T 2"
V:3 bass nm="Bass" snm="B"
V:1
 z2 z2 A2 |"^1)" A4 A2 | B4 B2 | c4 c2 | d4 B2 | e4 c2 | !fermata!d4 d2 | d4 e2 | f4 d2 | d4 c2 | %10
w: O|un- ü-|ber- wind-|li- cher|Heldt, Sanct|Mi- cha-|el, komm|uns zu|hilff, zih|mit zu|
w: Die|Kirch dir|an- be-|foh- len|ist, Sanct|Mi- cha-|el, Du|un- ser|Schutz und|Schirm- herz|
 B4 d2 | c4 B2 | A2 G2 d2 | c4 B2 | A2 G2 B2 | c4 A2 | G6 |] %17
w: Feldt, helff|uns hie|kem- pffen, die|Fein- de|dem- pffen, Sanct|Mi- cha-|el.|
w: bist, _|_ _||||||
V:2
 z2 z2 F2 |"^2)""^1)" F2 D2 C2 | F4 G2 | E4 A2 | B4 F2 | c4 G2 | !fermata!A4 F2 | A2 G4 | A2 A4 | %9
w: O|un- ü- *|ber- wind-|li- cher|Heldt, Sanct|Mi- cha-|el, komm|uns zu|hilff, zih|
w: Du|bist der _|Himm- lich|Ca- pi-|tein, Sanct|Mi- cha-|el, Dein|Kriegs- heer|al- le|
 B4 F2 | F4 G2 | E2 D4 | F2 E2 F2 | A4 D2 | F2 G2 F2 | E4 ^F2 | G6 |] %17
w: mit zu|Feldt, helff|uns hie|kem- pffen, die|Fein- de|dem- pffen, Sanct|Mi- cha-|el.|
w: En- gel|seyn, *|||||||
V:3
 z2 z2 D,2 |"^3)""^1)""^4)" D,4 F,2 | B,,4 G,,2 | C,4 F,2 | B,,4 B,,2 | C,4 E,2 | %6
w: O|un- ü-|ber- wind-|li- cher|Heldt, Sanct|Mi- cha-|
w: Grosz|ist dein|Macht, grosz|ist dein|Heer, Sanct|Mi- cha-|
 !fermata!D,4 D,2 | D,4 C,2 | F,2 D,4 | B,,4 A,,2 | B,,4 G,,2 | C,4 G,2 | D,2 C,2 B,,2 | F,4 B,,2 | %14
w: el, komm|uns zu|hilff, zih|mit zu|Feldt, helff|uns hie|kem- pffen, die|Fein- de|
w: el, grosz|auff dem|Land, grosz|auff dem|Meer, *||||
 D,2 G,,2 B,,2 | A,,4 D,2 | G,,6 |] %17
w: dem- pffen, Sanct|Mi- cha-|el.|
w: |||

